assets/Bow and arrow/High Contrast/bow_and_arrow_high_contrast.svg

<svg width="32" height="32" viewBox="0 0 32 32" fill="none" xmlns="http://www.w3.org/2000/svg">
<path d="m22.055 3.98858 7.34-1.97c0.34-0.1 0.66 0.22 0.57 0.57l-1.97 7.34c-0.09 0.35002-0.52 0.46002-0.77 0.21002l-1.2808-1.28081-1.3699 1.36981c0.7194 0.9148 1.2905 1.9328 1.6985 3.0437 0.7482 2.0043 0.9003 4.2038 0.3963 6.3734-0.3415 1.4702-0.0431 2.9759 0.7994 4.1797l0.1779-0.178c0.1953-0.1952 0.5119-0.1952 0.7072 0 0.1952 0.1953 0.1952 0.5119 0 0.7072l-0.2355 0.2354c1.0942 1.1543 1.0755 2.9751-0.056 4.1066-1.1315 1.1316-2.9524 1.1502-4.1067 0.0561l-0.1018 0.1019c-0.1953 0.1952-0.5119 0.1952-0.7072 0-0.1952-0.1953-0.1952-0.5119 0-0.7072l0.1276-0.1275c-0.2785-0.3278-0.5359-0.6689-0.7719-1.0217l-11.0154-0.0205-2.49178 2.4918c-0.7 0.7-1.84 0.7-2.55 0-0.36774-0.3677-0.54228-0.8569-0.52364-1.3414-0.53697 0.0204-1.08059-0.1744-1.49052-0.5843-0.41997-0.42-0.61413-0.9803-0.58246-1.53-0.47854 0.0137-0.96013-0.1611-1.3233-0.5242-0.7-0.71-0.7-1.85 0-2.55l2.37934-2.3794-0.38305-11.41642c-0.18138-0.13524-0.35927-0.27644-0.53342-0.42355l-0.13432 0.13432c-0.19526 0.19527-0.51184 0.19527-0.7071 0-0.19527-0.19526-0.19527-0.51184 0-0.7071l0.10645-0.10645c-1.11289-1.1508-1.10773-3.00087 0.03974-4.13324 1.13912-1.12414 2.97217-1.13421 4.12373-0.03024l0.23008-0.23007c0.19526-0.19527 0.51184-0.19527 0.7071 0 0.19527 0.19526 0.19527 0.51184 0 0.7071l-0.17162 0.17163c1.19925 0.83524 2.69347 1.12604 4.15257 0.7803l0.0057-0.00136c1.8529-0.42758 3.7421-0.3754 5.5123 0.11906 1.4217 0.39204 2.7446 1.06672 3.8956 1.97384l1.3676-1.36766-1.2707-1.27078c-0.25-0.25-0.13-0.68 0.21-0.77m-16.05384 1.30315c-0.37287-0.32664-0.94665-0.31378-1.3037 0.03857-0.34911 0.34452-0.3666 0.92085-0.02973 1.29486l1.33343-1.33343m-0.59297 2.00718c2.18037 1.7746 5.03771 2.44463 7.81971 1.79576l0.0023-5.3E-4c1.2026-0.27753 2.4209-0.24351 3.5597 0.0701l0.5003-1.82152c-1.4411-0.39823-2.981-0.43994-4.4976-0.09042-2.1345 0.50485-4.33561 0.02067-6.04105-1.29675l-1.34336 1.34336m18.98801 6.66429-1.7637 0.6475 3E-3 0.0079c0.4742 1.2977 0.5784 2.7253 0.2429 4.1389-0.6044 2.5935-0.0626 5.2523 1.4518 7.367 0.0541 0.0476 0.0978 0.1067 0.1273 0.1735 0.0765 0.1017 0.1553 0.2021 0.2364 0.301l1.3446-1.3446c-1.324-1.7087-1.8152-3.9193-1.3176-6.0621 0.4157-1.7892 0.2882-3.5888-0.3227-5.2237l-2E-3 -0.0054m-5.8283-1.5276c-0.0741-0.0741-0.1505-0.1459-0.2289-0.2153l-6.5689 6.5689 0.0049-6E-4 -6.69026 6.6902c-0.33652 0.3929-0.31881 0.9849 0.05312 1.3569 0.34689 0.3469 0.88524 0.3856 1.27491 0.1162 2.239989-2.242599 4.488519-4.489782 6.73213-6.7334l-0.0037 0.0281 6.6123-6.6124c-0.0693-0.078-0.1412-0.1542-0.2156-0.2286l-0.97-0.97m-2.31-1.3434c-0.8202-0.2257-1.7007-0.2515-2.5769-0.0495-2.821 0.6576-5.71328 0.1994-8.13638-1.2213l0.33073 9.857c0.17832-0.096 0.37578-0.1572 0.57965-0.1798l3.6831-0.4916 7.3807-7.3807c-0.3928-0.2301-0.8167-0.4101-1.2609-0.5341m4.4864 4.2054c-0.1067-0.2959-0.2389-0.5778-0.3952-0.8448l-7.4257 7.4258-0.4885 3.6599c-0.017 0.153-0.0557 0.3007-0.1145 0.4398l9.5855 0.0178c-1.2258-2.3287-1.5932-5.0432-0.9748-7.6947l1E-3 -0.0041c0.2157-0.9075 0.1812-1.8196-0.069-2.6699l-0.1188-0.3298m5.9036 11.9838c0.3503-0.3503 0.3685-0.9051 0.0544-1.2766l-1.331 1.3311c0.3715 0.314 0.9262 0.2959 1.2766-0.0545m-1.4108-19.13072-1.4142-1.41421-1.316 1.31596c0.076 0.07189 0.1511 0.1449 0.2252 0.219l0.9734 0.97339c0.0727 0.07339 0.1443 0.14761 0.2148 0.22264Z" fill="#212121"/>
</svg>

<svg width="32" height="32" viewBox="0 0 32 32" fill="none" xmlns="http://www.w3.org/2000/svg">
<path d="M22.055 3.98858L29.395 2.01858C29.735 1.91858 30.055 2.23858 29.965 2.58858L27.995 9.92858C27.905 10.2786 27.475 10.3886 27.225 10.1386L25.9442 8.85779L24.5743 10.2276C25.2937 11.1424 25.8648 12.1604 26.2728 13.2713C27.021 15.2756 27.1731 17.4751 26.6691 19.6447C26.3276 21.1149 26.626 22.6206 27.4685 23.8244L27.6464 23.6464C27.8417 23.4512 28.1583 23.4512 28.3536 23.6464C28.5488 23.8417 28.5488 24.1583 28.3536 24.3536L28.1181 24.589C29.2123 25.7433 29.1936 27.5641 28.0621 28.6956C26.9306 29.8272 25.1097 29.8458 23.9554 28.7517L23.8536 28.8536C23.6583 29.0488 23.3417 29.0488 23.1464 28.8536C22.9512 28.6583 22.9512 28.3417 23.1464 28.1464L23.274 28.0189C22.9955 27.6911 22.7381 27.35 22.5021 26.9972L11.4867 26.9767L8.99492 29.4685C8.29492 30.1685 7.15492 30.1685 6.44492 29.4685C6.07718 29.1008 5.90264 28.6116 5.92128 28.1271C5.38431 28.1475 4.84069 27.9527 4.43076 27.5428C4.01079 27.1228 3.81663 26.5625 3.8483 26.0128C3.36976 26.0265 2.88817 25.8517 2.525 25.4886C1.825 24.7786 1.825 23.6386 2.525 22.9386L4.90434 20.5592L4.52129 9.14278C4.33991 9.00754 4.16202 8.86634 3.98787 8.71923L3.85355 8.85355C3.65829 9.04882 3.34171 9.04882 3.14645 8.85355C2.95118 8.65829 2.95118 8.34171 3.14645 8.14645L3.2529 8.04C2.14001 6.8892 2.14517 5.03913 3.29264 3.90676C4.43176 2.78262 6.26481 2.77255 7.41637 3.87652L7.64645 3.64645C7.84171 3.45118 8.15829 3.45118 8.35355 3.64645C8.54882 3.84171 8.54882 4.15829 8.35355 4.35355L8.18193 4.52518C9.38118 5.36042 10.8754 5.65122 12.3345 5.30548L12.3402 5.30412C14.1931 4.87654 16.0823 4.92872 17.8525 5.42318C19.2742 5.81522 20.5971 6.4899 21.7481 7.39702L23.1157 6.02936L21.845 4.75858C21.595 4.50858 21.715 4.07858 22.055 3.98858ZM6.00116 5.29173C5.62829 4.96509 5.05451 4.97795 4.69746 5.3303C4.34835 5.67482 4.33086 6.25115 4.66773 6.62516L6.00116 5.29173ZM5.40819 7.29891C7.58856 9.07351 10.4459 9.74354 13.2279 9.09467L13.2302 9.09414C14.4328 8.81661 15.6511 8.85063 16.7899 9.16424L17.2902 7.34272C15.8491 6.94449 14.3092 6.90278 12.7926 7.2523C10.6581 7.75715 8.45699 7.27297 6.75155 5.95555L5.40819 7.29891ZM24.3962 13.9632L22.6325 14.6107L22.6355 14.6186C23.1097 15.9163 23.2139 17.3439 22.8784 18.7575C22.274 21.351 22.8158 24.0098 24.3302 26.1245C24.3843 26.1721 24.428 26.2312 24.4575 26.298C24.534 26.3997 24.6128 26.5001 24.6939 26.599L26.0385 25.2544C24.7145 23.5457 24.2233 21.3351 24.7209 19.1923C25.1366 17.4031 25.0091 15.6035 24.3982 13.9686L24.3962 13.9632ZM18.5679 12.4356C18.4938 12.3615 18.4174 12.2897 18.339 12.2203L11.7701 18.7892L11.775 18.7886L5.08474 25.4788C4.74822 25.8717 4.76593 26.4637 5.13786 26.8357C5.48475 27.1826 6.0231 27.2213 6.41277 26.9519C6.42332 26.9407 6.43403 26.9296 6.44492 26.9185L13.1449 20.2185L13.1412 20.2466L19.7535 13.6342C19.6842 13.5562 19.6123 13.48 19.5379 13.4056L18.5679 12.4356ZM16.2579 11.0922C15.4377 10.8665 14.5572 10.8407 13.681 11.0427C10.86 11.7003 7.96772 11.2421 5.54462 9.8214L5.87535 19.6784C6.05367 19.5824 6.25113 19.5212 6.455 19.4986L10.1381 19.007L17.5188 11.6263C17.126 11.3962 16.7021 11.2162 16.2579 11.0922ZM20.7443 15.2976C20.6376 15.0017 20.5054 14.7198 20.3491 14.4528L12.9234 21.8786L12.4349 25.5385C12.4179 25.6915 12.3792 25.8392 12.3204 25.9783L21.9059 25.9961C20.6801 23.6674 20.3127 20.9529 20.9311 18.3014L20.9321 18.2973C21.1478 17.3898 21.1133 16.4777 20.8631 15.6274L20.7443 15.2976ZM26.6479 27.2814C26.9982 26.9311 27.0164 26.3763 26.7023 26.0048L25.3713 27.3359C25.7428 27.6499 26.2975 27.6318 26.6479 27.2814ZM25.2371 8.15068L23.8229 6.73647L22.5069 8.05243C22.5829 8.12432 22.658 8.19733 22.7321 8.27143L23.7055 9.24482C23.7782 9.31821 23.8498 9.39243 23.9203 9.46746L25.2371 8.15068Z" fill="#212121"/>
</svg>
